X:4117
T:McConnell's Cup of Tea
O:england
M:C|
L:1/8
S:Tape of Gary Hastings recorded in Portrush -81
R:reel
H:See also #63 for a more normal version
K:Edor
{c}BAGF GBEB|GBFB GBEB|{c}BAGF GBEG|FADA FA.d2|
{c}BAGF GBEB|GBFB GB.E2|{c}BAGF GABc|dB{c}AG {A}FD.D2||
dA~A2 EA~A2|FA~A2 EA~A2|dA~A2 EA~A2|dA{c}AG FA.D2|
dA~A2 EA~A2|FA~A2 g3z|af (3gfe (3fed eA|dA{c}AG {A}FDDE||
FA~A2 EA~A2|FAdA FE~E2|F2zA FABc|dB{c}AG {A}FD.D2|
FA~A2 EA~A2|FAdA FE~E2|f2zc dB{c}AF|GB{c}AG FAEA||


